packages/ui-solid/icons/signature_28.svg

<svg width="28" height="28" viewBox="0 0 28 28" fill="none" xmlns="http://www.w3.org/2000/svg">
<path fill-rule="evenodd" clip-rule="evenodd" d="M3.00241 5.90005C3.00241 5.35369 3.44533 4.91077 3.9917 4.91077H18.9565C19.5029 4.91077 19.9458 5.35369 19.9458 5.90005C19.9458 6.44642 19.5029 6.88934 18.9565 6.88934H3.9917C3.44533 6.88934 3.00241 6.44642 3.00241 5.90005ZM3.00241 10.8226C3.00241 10.2763 3.44533 9.83336 3.9917 9.83336H11.4741C12.0205 9.83336 12.4634 10.2763 12.4634 10.8226C12.4634 11.369 12.0205 11.8119 11.4741 11.8119H3.9917C3.44533 11.8119 3.00241 11.369 3.00241 10.8226ZM15.5348 11.1053C16.218 10.9056 16.9219 11.0396 17.5497 11.5042L17.5756 11.5234L17.6001 11.5441C18.6155 12.403 18.8762 13.5491 18.6777 14.6822C18.4903 15.7516 17.8987 16.8367 17.1916 17.823C16.533 18.7417 15.7192 19.6496 14.8826 20.477C15.149 20.4875 15.5325 20.4371 16.0749 20.2478C17.0663 19.7465 18.3131 18.7652 19.2818 17.9129C20.098 17.1947 21.3775 17.5079 21.8003 18.4332L23.4011 17.3801C23.8575 17.0798 24.471 17.2064 24.7713 17.6628C25.0716 18.1193 24.945 18.7327 24.4885 19.033L22.3937 20.4112C21.5651 20.9563 20.519 20.5964 20.1237 19.7995C19.1707 20.6049 17.9667 21.521 16.9001 22.0473L16.8496 22.0722L16.7965 22.0912C15.5805 22.5276 14.4813 22.6033 13.5845 22.1562C13.4697 22.099 13.3624 22.0353 13.2622 21.9661C12.844 22.324 12.4427 22.6483 12.0765 22.9294C11.643 23.262 11.022 23.1804 10.6893 22.7469C10.3567 22.3135 10.4383 21.6925 10.8718 21.3598C11.2615 21.0607 11.6891 20.7127 12.1307 20.3294C12.0968 20.2195 12.0677 20.1091 12.043 19.9994C11.6797 18.3888 12.0974 16.3086 12.5263 14.9543L12.5291 14.9453L12.5322 14.9364C12.8013 14.1396 13.3265 12.9691 14.0578 12.1296C14.4223 11.7111 14.9137 11.2868 15.5348 11.1053ZM13.8824 18.675C14.508 18.0287 15.0984 17.347 15.5835 16.6702C16.2233 15.7778 16.6168 14.98 16.7288 14.3408C16.8273 13.7784 16.7093 13.395 16.3479 13.0768C16.1981 12.9726 16.1332 12.9917 16.0919 13.0038L16.0898 13.0044C15.9846 13.0352 15.7963 13.1461 15.5497 13.4292C15.061 13.9902 14.64 14.8819 14.4097 15.5608C14.1076 16.5173 13.875 17.6926 13.8824 18.675ZM3.00241 15.253C3.00241 14.7066 3.44533 14.2637 3.9917 14.2637H8.97997C9.52634 14.2637 9.96926 14.7066 9.96926 15.253C9.96926 15.7993 9.52634 16.2423 8.97997 16.2423H3.9917C3.44533 16.2423 3.00241 15.7993 3.00241 15.253Z" fill="#007AFF"/>
</svg>

<svg xmlns="http://www.w3.org/2000/svg" width="28" height="28" fill="none"><path fill="currentColor" fill-rule="evenodd" d="M3.002 5.9a.99.99 0 0 1 .99-.99h14.964a.99.99 0 1 1 0 1.98H3.992a.99.99 0 0 1-.99-.99m0 4.923a.99.99 0 0 1 .99-.99h7.482a.99.99 0 1 1 0 1.979H3.992a.99.99 0 0 1-.99-.99m12.533.282c.683-.2 1.387-.065 2.015.4l.026.018.024.021c1.015.859 1.276 2.005 1.078 3.138-.188 1.07-.78 2.155-1.486 3.141-.659.919-1.473 1.827-2.31 2.654.267.01.65-.04 1.193-.23.991-.5 2.238-1.482 3.207-2.334.816-.718 2.096-.405 2.518.52l1.601-1.053a.99.99 0 1 1 1.087 1.653l-2.094 1.378c-.829.545-1.875.185-2.27-.612-.953.806-2.157 1.722-3.224 2.248l-.05.025-.053.02c-1.216.436-2.316.511-3.213.064a3 3 0 0 1-.322-.19c-.418.358-.82.682-1.186.963a.99.99 0 0 1-1.204-1.57c.39-.298.817-.646 1.259-1.03a4 4 0 0 1-.088-.33c-.363-1.61.054-3.69.483-5.045l.003-.009.003-.009c.27-.796.794-1.967 1.526-2.806.364-.419.856-.843 1.477-1.025m-1.653 7.57a18 18 0 0 0 1.702-2.005c.64-.892 1.033-1.69 1.145-2.33.098-.562-.02-.945-.381-1.263-.15-.104-.215-.085-.256-.073h-.002c-.105.031-.294.142-.54.425-.489.561-.91 1.453-1.14 2.132-.302.956-.535 2.132-.528 3.114m-10.88-3.422a.99.99 0 0 1 .99-.99H8.98a.99.99 0 1 1 0 1.98H3.992a.99.99 0 0 1-.99-.99" clip-rule="evenodd"/></svg>
